X: 21292
T: McDuff's scots measure
%R: reel, march
B: James Oswald "The Caledonian Pocket Companion" v.2 p.129 #2
Z: 2018 John Chambers <jc:trillian.mit.edu>
M: C|
L: 1/8
K: G
"_Brisk"ba |\
g2d2 G3A | B2 g4 eg | a2A2 ABcd | e2 a4 ba |\
g2d2 G3A | B2 g4 dB | c2e2 ABcA | TB2(AG) G2 :|
|: (ba) |\
(ge) e4 (ba) | (gd) d4 (ba) | (gd) c4 B2 | TB2 A4 ba |\
(ge) e4 (ba) | (gd) d4 (ba) | gdec Aedc | TB2(AG) G2 :|
